packages/foundations/assets/icons/functional/images/maps/parking_28.svg

<svg width="28" height="28" viewBox="0 0 28 28" fill="none" xmlns="http://www.w3.org/2000/svg">
<g clip-path="url(#clip0_186_96)">
<path fill-rule="evenodd" clip-rule="evenodd" d="M23.625 1.75C25.0747 1.75 26.25 2.92525 26.25 4.375V23.625C26.25 25.0747 25.0747 26.25 23.625 26.25H4.375C2.92525 26.25 1.75 25.0747 1.75 23.625V4.375C1.75 2.92525 2.92525 1.75 4.375 1.75H23.625ZM23.625 3.5H4.375C3.92627 3.5 3.55643 3.83779 3.50589 4.27296L3.5 4.375V23.625C3.5 24.0737 3.83779 24.4436 4.27296 24.4941L4.375 24.5H23.625C24.0737 24.5 24.4436 24.1622 24.4941 23.727L24.5 23.625V4.375C24.5 3.92627 24.1622 3.55643 23.727 3.50589L23.625 3.5ZM14.7751 7.4025C16.1867 7.4025 17.2601 7.7175 17.9951 8.3475C18.7301 8.9775 19.0976 9.9225 19.0976 11.1825C19.0976 12.4775 18.7155 13.4546 17.9513 14.1138C17.2349 14.7317 16.193 15.06 14.8254 15.0986C13.9137 15.1244 13.1328 15.0837 12.4825 14.9765L12.4826 18.935C12.4826 19.5922 11.9498 20.125 11.2926 20.125C10.674 20.125 10.1026 19.6665 10.1026 18.935C10.1008 15.5284 10.1008 12.1218 10.1026 8.715C10.1026 8.03277 10.6304 7.4025 11.4151 7.4025H14.7751ZM12.4825 9.1525V13.3166C13.1022 13.3872 13.7265 13.4225 14.3551 13.4225C15.1834 13.4225 15.7813 13.2533 16.1488 12.915C16.5163 12.5767 16.7001 12.0225 16.7001 11.2525C16.7001 10.5631 16.5675 10.0545 16.3024 9.72667C16.0372 9.39885 15.3723 9.15379 14.6176 9.1525C13.9059 9.15129 13.1942 9.15129 12.4825 9.1525Z" fill="#1A1C1F"/>
</g>
<defs>
<clipPath id="clip0_186_96">
<rect width="28" height="28" fill="white"/>
</clipPath>
</defs>
</svg>

<svg xmlns="http://www.w3.org/2000/svg" width="28" height="28" fill="none"><g clip-path="url(#a)"><path fill="#1A1C1F" fill-rule="evenodd" d="M23.625 1.75a2.625 2.625 0 0 1 2.625 2.625v19.25a2.625 2.625 0 0 1-2.625 2.625H4.375a2.625 2.625 0 0 1-2.625-2.625V4.375A2.625 2.625 0 0 1 4.375 1.75zm0 1.75H4.375a.875.875 0 0 0-.87.773l-.005.102v19.25c0 .449.338.819.773.87l.102.005h19.25a.875.875 0 0 0 .87-.773l.005-.102V4.375a.875.875 0 0 0-.773-.87zm-8.85 3.903q2.118 0 3.22.945t1.103 2.834q0 1.943-1.147 2.932-1.074.927-3.126.985-1.367.038-2.342-.123v3.959a1.19 1.19 0 0 1-1.19 1.19c-.619 0-1.19-.459-1.19-1.19q-.003-5.11 0-10.22c0-.682.527-1.312 1.312-1.312zm-2.293 1.75v4.164q.93.105 1.873.105 1.242 0 1.794-.507.55-.507.551-1.662 0-1.034-.398-1.526c-.265-.328-.93-.573-1.684-.575z" clip-rule="evenodd"/></g><defs><clipPath id="a"><path fill="#fff" d="M0 0h28v28H0z"/></clipPath></defs></svg>
